X:1
T: Galway Reel
C:
R:Reel
Q: 232
K:D
M:4/4
L:1/8
|:AD FD AD FA|((3BdB) BA Bc dB|AD FD AD FD|DG FG E2 D2|
AD FD AD FA|((3BdB) BA Bc dB|AD FD AD FD|DG FG E2 D2|
d2 fd ed cB|AB cd ef ge|d2 fd ed cA|BG FG E2 D2|
d2 fd ed cB|AB cd ef ge|fd ec dB AF|DG FG E2 D2:|
